public/avatar/shoe/154.svg

<svg xmlns:xlink="http://www.w3.org/1999/xlink" height="38.3" width="36.05" xmlns="http://www.w3.org/2000/svg"><use height="17.3" transform="translate(14.15 10.9)" width="18.9" xlink:href="#a"/><defs><g id="a" fill-rule="evenodd"><path d="M-7.65-.05q-1.6 2.15-1.6 4.2l.05 1.05.1.5-.2.35-.35 1.05.25 1q2.55 4.9 9.2 5.25l1.9-.2 3.5-1.2q3.15-1.6 4-3.95.2-.6-.15-.95l-.3-.3.05-.5.15-1V4.8l-.1-.5-.35-.95L7.45 1.3 5.7-1.15l-1.55-1.3Q2.7-3.75.95-3.95l-2.6.05-2.7.8-1.05.65-.9.7-1.35 1.7" transform="translate(9.65 3.95)"/><path d="m.45 12.35 1.55-.2 1.15-.3 2.05-.9.95-.6.65-.65.7-.9.65-.9.05-1.1-.2-.45L7.85 6q-.45-.25-1.6.65l-1.4 1L2.9 8.8l-2.5.5h-1.7l-.85-.05-1.55-.45-3.55-1.95q-1.25-.8-1.55-.5-.45.45-.05 1.05l.75 1.05L-6.45 10l2.2 1.45 2 .7 2.7.2" fill="#fff" transform="translate(9.65 3.95)"/><path d="M5.2-.6Q3.65-2.4 1.65-2.8l-2.1-.1q-2.9-.15-5.4 2.35l-.45.5-1.15 1.45-.35.6-.4.95q-.75 1.85-.25 3.5l.35.8 1.75 1.85q2.3 2.3 6.05 2.3l3.5-.5 1.55-.55q1.7-.7 1.35-1.05l1.05-1q.3.3.8-1.65H8V6.6h-.05L8 5.05 7.65 3.6l-.7-1.4L6.1.6 5.2-.6" fill="#e20a9a" transform="translate(9.65 3.95)"/><path d="m-.2-2.05-3.65.55Q-5.2-1-7.3 3.2q-.3.65.05 1.35 5.2 5 13.5.7.8-1.7-.7-4.4Q4.1-1.85-.2-2.05" fill="#020000" transform="translate(9.65 3.95)"/><path d="M-.25-3.9q-4.7 0-6.45 3.9-.85 1.9-.8 3.85l7.25.85 6.85-1Q6.75 1.8 6-.1 4.45-3.9-.25-3.9" fill="#020000" transform="translate(9.65 3.95)"/><path d="M4.2 5.5Q5.85 4.7 6 3.9q.8-7.05-6.05-7.05-6.65 0-6.65 6.25 0 .8 1.6 1.95 1.95 1.4 4.6 1.4 2.7 0 4.7-.95" fill="#fff" transform="translate(9.65 3.95)"/><path d="M-5.4-1.05Q-7.75 2-6.3 3.8q1.85 2.5 4 2.5-2.9-2.2-2.95-5.2Q-5.3-.75-3.2-2.15l2.15-1-1.55.25q-1.75.5-2.8 1.85" fill="#ccc" transform="translate(9.65 3.95)"/><path d="M4.15 9.5q.4-.55.1-1.35-.25-.8-.9-1L1.3 7.3q-1.05.5-1 1.6.1 1.9 2.1 1.7.95 0 1.75-1.1M7.8 3.9q-.8.6-.85 1.05L6.8 6q-.15.7.9 1.6.85-1.4.2-3.4l-.1-.3M-3.3 9.15q-1.2-1.4-2.55.3l.65.5.75.55q1 .6 1.85.55.25-.8-.7-1.9M-6.95 4.9l-.25-.25q-.1-.95-.45-1.2-.55.9-.45 2.15Q-8 7-6.75 6.75q.7-.1 1.05-.7.1-.3-.3-.6l-.95-.55" fill="#ff87c7" transform="translate(9.65 3.95)"/><path d="m.55 4.2.5.35.25.15.05.45v.8l-.2.45 1.2-.25.3-.1-.05-.65.25-.65.35-.8L1.85 4l-.65.05-.65.15" fill="#9e9e9e" transform="translate(9.65 3.95)"/><path d="m4.05 3.8-.7.2-.6.35q-.5.5-.5 1.2-.05.55.05.65h.1l1-.4q-.35-.45-.15-1.15.15-.4.8-.85" fill="#ccc" transform="translate(9.65 3.95)"/></g></defs></svg>

<?xml version="1.0" encoding="UTF-8" standalone="no"?>
<svg xmlns:xlink="http://www.w3.org/1999/xlink" height="38.3px" width="36.05px" xmlns="http://www.w3.org/2000/svg">
  <g transform="matrix(1.0, 0.0, 0.0, 1.0, 23.8, 14.85)">
    <use height="17.3" transform="matrix(1.0, 0.0, 0.0, 1.0, -9.65, -3.95)" width="18.9" xlink:href="#shape0"/>
  </g>
  <defs>
    <g id="shape0" transform="matrix(1.0, 0.0, 0.0, 1.0, 9.65, 3.95)">
      <path d="M-7.65 -0.05 Q-9.25 2.1 -9.25 4.15 L-9.2 5.2 -9.1 5.7 -9.3 6.05 -9.65 7.1 -9.4 8.1 Q-6.85 13.0 -0.2 13.35 L1.7 13.15 5.2 11.95 Q8.35 10.35 9.2 8.0 9.4 7.4 9.05 7.05 L8.75 6.75 8.8 6.25 8.95 5.25 8.95 4.8 8.85 4.3 8.5 3.35 7.45 1.3 5.7 -1.15 4.15 -2.45 Q2.7 -3.75 0.95 -3.95 L-1.65 -3.9 -4.35 -3.1 -5.4 -2.45 -6.3 -1.75 -7.65 -0.05" fill="#000000" fill-rule="evenodd" stroke="none"/>
      <path d="M0.45 12.35 L2.0 12.15 3.15 11.85 5.2 10.95 6.15 10.35 6.8 9.7 7.5 8.8 8.15 7.9 8.2 6.8 8.0 6.35 7.85 6.0 Q7.4 5.75 6.25 6.65 L4.85 7.65 2.9 8.8 0.4 9.3 -1.3 9.3 -2.15 9.25 -3.7 8.8 -7.25 6.85 Q-8.5 6.05 -8.8 6.35 -9.25 6.8 -8.85 7.4 L-8.1 8.45 -6.45 10.0 -4.25 11.45 -2.25 12.15 0.45 12.35" fill="#ffffff" fill-rule="evenodd" stroke="none"/>
      <path d="M5.2 -0.6 Q3.65 -2.4 1.65 -2.8 L-0.45 -2.9 Q-3.35 -3.05 -5.85 -0.55 L-6.3 -0.05 -7.45 1.4 -7.8 2.0 -8.2 2.95 Q-8.95 4.8 -8.45 6.45 L-8.1 7.25 -6.35 9.1 Q-4.05 11.4 -0.3 11.4 L3.2 10.9 4.75 10.35 Q6.45 9.65 6.1 9.3 L7.15 8.3 Q7.45 8.6 7.95 6.65 L8.0 6.65 8.0 6.6 7.95 6.6 8.0 5.05 7.65 3.6 6.95 2.2 6.1 0.6 5.2 -0.6" fill="#e20a9a" fill-rule="evenodd" stroke="none"/>
      <path d="M-0.2 -2.05 L-3.85 -1.5 Q-5.2 -1.0 -7.3 3.2 -7.6 3.85 -7.25 4.55 -2.05 9.55 6.25 5.25 7.05 3.55 5.55 0.85 4.1 -1.85 -0.2 -2.05" fill="#020000" fill-rule="evenodd" stroke="none"/>
      <path d="M-0.25 -3.9 Q-4.95 -3.9 -6.7 0.0 -7.55 1.9 -7.5 3.85 L-0.25 4.7 6.6 3.7 Q6.75 1.8 6.0 -0.1 4.45 -3.9 -0.25 -3.9" fill="#020000" fill-rule="evenodd" stroke="none"/>
      <path d="M4.2 5.5 Q5.85 4.7 6.0 3.9 6.8 -3.15 -0.05 -3.15 -6.7 -3.15 -6.7 3.1 -6.7 3.9 -5.1 5.05 -3.15 6.45 -0.5 6.45 2.2 6.45 4.2 5.5" fill="#ffffff" fill-rule="evenodd" stroke="none"/>
      <path d="M-5.4 -1.05 Q-7.75 2.0 -6.3 3.8 -4.45 6.3 -2.3 6.3 -5.2 4.1 -5.25 1.1 -5.3 -0.75 -3.2 -2.15 L-1.05 -3.15 -2.6 -2.9 Q-4.35 -2.4 -5.4 -1.05" fill="#cccccc" fill-rule="evenodd" stroke="none"/>
      <path d="M4.15 9.5 Q4.55 8.95 4.25 8.15 4.0 7.35 3.35 7.15 L1.3 7.3 Q0.25 7.8 0.3 8.9 0.4 10.8 2.4 10.6 3.35 10.6 4.15 9.5" fill="#ff87c7" fill-rule="evenodd" stroke="none"/>
      <path d="M7.8 3.9 Q7.0 4.5 6.95 4.95 L6.8 6.0 Q6.65 6.7 7.7 7.6 8.55 6.2 7.9 4.2 L7.8 3.9" fill="#ff87c7" fill-rule="evenodd" stroke="none"/>
      <path d="M-3.3 9.15 Q-4.5 7.75 -5.85 9.45 L-5.2 9.95 -4.45 10.5 Q-3.45 11.1 -2.6 11.05 -2.35 10.25 -3.3 9.15" fill="#ff87c7" fill-rule="evenodd" stroke="none"/>
      <path d="M-6.95 4.9 L-7.2 4.65 Q-7.3 3.7 -7.65 3.45 -8.2 4.35 -8.1 5.6 -8.0 7.0 -6.75 6.75 -6.05 6.65 -5.7 6.05 -5.6 5.75 -6.0 5.45 L-6.95 4.9" fill="#ff87c7" fill-rule="evenodd" stroke="none"/>
      <path d="M0.55 4.2 L1.05 4.55 1.3 4.7 1.35 5.15 1.35 5.95 1.15 6.4 2.35 6.15 2.65 6.05 2.6 5.4 2.85 4.75 3.2 3.95 1.85 4.0 1.2 4.05 0.55 4.2" fill="#9e9e9e" fill-rule="evenodd" stroke="none"/>
      <path d="M4.05 3.8 L3.35 4.0 2.75 4.35 Q2.25 4.85 2.25 5.55 2.2 6.1 2.3 6.2 L2.4 6.2 3.4 5.8 Q3.05 5.35 3.25 4.65 3.4 4.25 4.05 3.8" fill="#cccccc" fill-rule="evenodd" stroke="none"/>
    </g>
  </defs>
</svg>
